X: 607
T: Dü Çeşmimden Gitmez Aşkın Hayali
C: Tanburî Mustafa Çavuş
O: Turkey
F: http://compmusic.upf.edu/node/140
N: hisarbuselik--sarki--duyek--du_cesmimden--tanburi_mustafa_cavus
N: makam= hisarbuselik
N: form= sarki
N: usul= duyek = 8/4
M: 8/4
L: 1/16
K: C _1/4B   
Q: 1/4=132
%%MIDI tuningsystem comma53
G2 c=B c2 d2 ef ed cB AB  | G2 c=B c2 df ed cd e4  | 
w:  ARANAĞME  |   | 
d2 .d4 f2 e2 ce de dc  | =B2 .c4 Bc d2 cB A2 d2  | \
w:   |   | 
z2 d^c dc .d4 =B=c B2 A2  | 
w:   | 
e2 ed c=B A^G A3f/e/ dc BA  | G2 c=B c2 d2 ef ed cB AB  | 
w:   |  ARANAĞME  | 
G2 c=B c2 df ed cd e4  | d2 .d4 f2 e2 ce de dc  | 
w:   |   | 
=B2 .c4 Bc d2 cB A2 d2  | z2 d^c dc .d4 =B=c B2 A2  | \
w:   |   | 
e2 ed c=B A^G A3e ^df e2  | 
w:   | 
^d2 e4 ^g2 gf fe ef e=d  | dc f4 {^g}fe e2 ed e3/2d/ c2  | 
w:  Dü  çeş *  mim  |  *  *  den_ *  a *  man_ a *  man   | 
z2 c4 f2 e2 ce d2 {e}dc  | =B2 c4 Bc d2 cB A2 d2  | \
w:  git mez_ aş  |  kın   | 
z2 d^c dc d4 =B=c B2 A2  | 
w:  ha  | 
e2 {f}ed c=B A^G A3e ^df e2  | z2 e4 ^gf f2 {g}fe ef ed  | 
w:  ya *  *  *  *  *  *  *  li   SAZ  |  Kıb lem_ *  ol  | 
dc {c}f4 fe e2 ed e3/2d/ c2  | z2 c4 f2 e2 ce d2 {e}dc  | \
w:  *  *  *  du  a *  man_ a *  man   |  ba na  dos  | 
=B2 c4 Bc d2 cB A2 d2  | 
w:  tun   | 
z2 d^c dc d4 =B=c B2 A2  | e2 {f}ed c=B A^G A3e ^df e2  | 
w:  ce  |  mâ *  *  *  *  *  *  *  li   SAZ  | 
z2 e4 ^gf f2 {=g}fe ef e^3/4d  | ^3/4d2 e4 =dc d2 ed c=B A2  | 
w:  Râh_ ı  *  aş  |  *  ka   | 
^d2 e4 ^gf f2 {g}fe e2 d2  | e2 f^g a2 {=b}ag gf fe e4  | \
w:  sü var  *  *  o  |  lup   | 
z2 ef e2 f2 ^g2 a2 =b2 ag  | 
w:  git *  *  *  me  | 
ac' =ba ^gf fe gf e^d e4  | A4 e4 f3/2e/ de de dc  | 
w:  yen    |  Ey  e fen  | 
c2 f4 fe e2 ed ed c2  | z2 c4 f2 e2 ce d2 {e}dc  | \
w:  *  dim_ a *  man_ a *  man   |  ni ce  bil  | 
=B2 c4 Bc d2 cB A2 d2  | 
w:  sin   | 
z2 d^c dc d4 =B=c B2 A2  | e2 {f}ed c=B A^G A3c Bd c2  | 
w:  bu   |  ha *  *  *  *  *  *  *  li   SAZ  | 
=Bc de ed cB cB AG AB cd  | e2 =Bc B2 A2 cB A^G A4  | 
w:  Ben  *  *  *  o  *  *  *  yâ *  *  *  rin   |  *  ben *  *  de si *  *  *  yim    | 
z2 =Bc B2 c2 d2 cd e4  | e2 a2 e2 a2 e2 {f}ed e3/2d/ c2  | \
w:  Ben *  *  de_ i  *  *  ef  |  ken *  de *  si *  *  *  yim    | 
z2 d4 ef ag fe ed c=B  | 
w:  Bah çe *  sin *  *  *  de   | 
c3/2=B/ cd cB A2 cB A^G A4  | c=B cd Bc AB G4 d4  | 
w:  bül *  *  *  *  *  bü lü *  *  *  yüm    |  Câ *  *  *  *  *  *  *  nım   | 
z2 d^c dc d4 =B=c B2 A2  | e2 {f}ed c=B A^G A4 z4  | |


